icons/calendar-check-line.svg

<svg xmlns="http://www.w3.org/2000/svg" width="24" height="24" fill="none"><g clip-path="url(#a)"><g><path fill="#121212" d="M9 1V3H15V1H17V3H21C21.2652 3 21.5196 3.10536 21.7071 3.29289C21.8946 3.48043 22 3.73478 22 4V20C22 20.2652 21.8946 20.5196 21.7071 20.7071C21.5196 20.8946 21.2652 21 21 21H3C2.73478 21 2.48043 20.8946 2.29289 20.7071C2.10536 20.5196 2 20.2652 2 20V4C2 3.73478 2.10536 3.48043 2.29289 3.29289C2.48043 3.10536 2.73478 3 3 3H7V1H9ZM20 10H4V19H20V10ZM15.036 11.136L16.45 12.55L11.5 17.5L7.964 13.964L9.38 12.55L11.501 14.672L15.037 11.136H15.036ZM7 5H4V8H20V5H17V6H15V5H9V6H7V5Z"/></g></g><defs><clipPath id="a"><rect width="24" height="24" fill="white"/></clipPath></defs></svg>

<svg width="24" height="24" fill="none" xmlns="http://www.w3.org/2000/svg"><g clip-path="url(#a)"><path d="M9 1v2h6V1h2v2h4a1 1 0 0 1 1 1v16a1 1 0 0 1-1 1H3a1 1 0 0 1-1-1V4a1 1 0 0 1 1-1h4V1h2Zm11 9H4v9h16v-9Zm-4.964 1.136 1.414 1.414-4.95 4.95-3.536-3.536L9.38 12.55l2.121 2.122 3.536-3.536h-.001ZM7 5H4v3h16V5h-3v1h-2V5H9v1H7V5Z" /></g><defs><clipPath id="a"><path fill="#fff" d="M0 0h24v24H0z"/></clipPath></defs></svg>
